assets/crypto-service-logo.svg

<svg height="640" width="1280" xmlns="http://www.w3.org/2000/svg" xmlns:xlink="http://www.w3.org/1999/xlink"><defs><linearGradient id="a" x1="50%" x2="50%" y1="100%" y2="0%"><stop offset="0" stop-color="#d676eb"/><stop offset="1" stop-color="#8227ff"/></linearGradient><path id="b" d="m471.57 152.791c-5.38-5.377-8.07-11.866-8.07-19.465 0-7.6 2.69-14.088 8.07-19.465 5.38-5.413 11.871-8.12 19.474-8.12 4.663 0 9.02 1.112 13.073 3.334v-12.797a39.564 39.564 0 0 0 -13.073-2.205c-10.83 0-20.084 3.836-27.76 11.507-7.674 7.671-11.512 16.92-11.512 27.746 0 10.825 3.838 20.074 11.513 27.745 7.675 7.672 16.928 11.508 27.76 11.508 4.482 0 8.84-.754 13.072-2.259v-12.744c-4.052 2.187-8.41 3.28-13.073 3.28-7.603 0-14.095-2.688-19.474-8.065zm53.313-25.058v-21.186h16.731c2.905 0 5.398 1.04 7.478 3.119 2.044 2.079 3.067 4.588 3.067 7.528 0 2.904-1.023 5.377-3.067 7.42-2.08 2.08-4.573 3.119-7.478 3.119h-16.73zm25.445 9.894c4.017-1.72 7.263-4.409 9.737-8.065 2.547-3.729 3.82-7.85 3.82-12.368 0-6.165-2.187-11.417-6.563-15.755-4.34-4.373-9.576-6.56-15.709-6.56h-28.407v76.946h11.675v-32.423h13.18l16.839 32.423h13.18zm64.182-42.747-16.3 27.638-16.301-27.638h-13.557l23.993 40.76v36.19h11.728v-36.19l23.994-40.76zm31.795 32.853h16.73c2.906 0 5.398-1.04 7.479-3.119 2.044-2.043 3.066-4.516 3.066-7.42 0-2.94-1.022-5.45-3.066-7.528-2.08-2.08-4.573-3.119-7.478-3.119h-16.731zm0 44.094h-11.675v-76.947h28.407c6.133 0 11.369 2.187 15.709 6.56 4.375 4.338 6.563 9.59 6.563 15.755 0 6.13-2.188 11.364-6.563 15.701-4.34 4.338-9.576 6.507-15.71 6.507h-16.73v32.424zm45.728-76.947v11.669h16.3v65.278h11.729v-65.277h16.3v-11.67h-44.33zm62.082 18.98c-5.38 5.377-8.07 11.866-8.07 19.465 0 7.6 2.69 14.088 8.07 19.465s11.872 8.066 19.475 8.066 14.095-2.689 19.475-8.066 8.07-11.865 8.07-19.465-2.69-14.088-8.07-19.465-11.872-8.066-19.475-8.066-14.095 2.689-19.475 8.066zm-8.285 47.212c-7.675-7.671-11.512-16.92-11.512-27.746 0-10.825 3.837-20.074 11.512-27.745 7.676-7.671 16.93-11.507 27.76-11.507s20.084 3.835 27.76 11.507c7.674 7.67 11.512 16.92 11.512 27.745 0 10.826-3.838 20.075-11.513 27.746s-16.928 11.507-27.76 11.507c-10.83 0-20.084-3.836-27.759-11.507zm123.897 11.453c-5.093-.214-9.791-1.577-14.096-4.086-4.877-2.832-8.194-6.632-9.952-11.4l10.975-4.032c.897 2.365 2.744 4.283 5.54 5.753 2.476 1.254 5.166 1.954 8.07 2.097 4.484.18 8.196-.914 11.137-3.28 2.475-2.008 3.784-4.302 3.927-6.883.216-4.91-4.931-8.836-15.44-11.775-16.462-4.625-24.442-12.458-23.94-23.499.323-7.743 3.64-13.532 9.953-17.368 4.806-2.94 10.58-4.248 17.323-3.925 8.177.358 14.74 3.208 19.69 8.55l-8.554 7.958c-2.797-3.012-6.689-4.625-11.674-4.84-3.515-.143-6.51.305-8.985 1.344-3.873 1.65-5.9 4.589-6.079 8.819-.215 4.84 4.932 8.729 15.44 11.668 9.469 2.653 16.176 6.56 20.12 11.722 2.727 3.585 4 7.546 3.82 11.884-.287 6.094-3.048 11.256-8.284 15.486-4.878 3.907-10.724 5.861-17.539 5.861-.502 0-.986-.018-1.452-.054zm36.582-77.646v76.948h39.273v-11.67h-27.6v-21.077h21.305v-11.668h-21.304v-20.863h27.599v-11.67zm59.716 32.854v-21.186h16.73c2.906 0 5.399 1.04 7.478 3.119 2.045 2.079 3.067 4.588 3.067 7.528 0 2.904-1.022 5.377-3.067 7.42-2.08 2.08-4.573 3.119-7.477 3.119zm25.445 9.894c4.016-1.72 7.262-4.409 9.737-8.065 2.546-3.729 3.82-7.85 3.82-12.368 0-6.165-2.188-11.417-6.563-15.755-4.34-4.373-9.576-6.56-15.71-6.56h-28.406v76.946h11.674v-32.423h13.18l16.84 32.423h13.18zm24.048-42.747v76.947h14.31l45.352-76.947h-13.557l-34.375 58.34v-58.34zm66.871 76.947h11.674v-76.84h-11.674zm40.833-19.036c-5.38-5.377-8.07-11.866-8.07-19.465 0-7.6 2.69-14.088 8.07-19.465 5.38-5.413 11.871-8.12 19.474-8.12 4.663 0 9.02 1.112 13.073 3.334v-12.797a39.564 39.564 0 0 0 -13.073-2.205c-10.83 0-20.084 3.836-27.759 11.507s-11.513 16.92-11.513 27.746c0 10.825 3.838 20.074 11.513 27.745 7.675 7.672 16.929 11.508 27.76 11.508 4.483 0 8.84-.754 13.072-2.259v-12.744c-4.052 2.187-8.41 3.28-13.073 3.28-7.603 0-14.095-2.688-19.474-8.065zm42.231-57.912v76.948h39.273v-11.67h-27.6v-21.077h21.304v-11.668h-21.304v-20.863h27.6v-11.67z"/></defs><g fill="none" fill-rule="evenodd"><path d="m0 0h1280v640h-1280z"/><g transform="translate(36.626 188.63)"><g fill="url(#a)"><path d="m28.382 88.858v13.35c0 14.184 11.269 25.448 25.46 25.448h23.373v-12.933h-23.373c-7.096 0-12.521-5.84-12.521-12.515v-13.767c6.26-2.503 10.434-8.76 10.434-15.435 0-9.178-7.513-17.104-17.112-17.104-9.183 0-17.113 7.509-17.113 17.104 0 7.509 4.174 13.767 10.852 15.852"/><path d="m53.842 206.919h23.373v-12.932h-23.373c-14.191 0-25.46 11.263-25.46 25.447v10.43c-6.261 2.502-10.852 8.76-10.852 15.852 0 9.178 7.513 17.104 17.113 17.104 9.182 0 17.112-7.509 17.112-17.104 0-7.092-4.174-12.932-10.434-15.435v-10.43c-.418-7.091 5.425-12.932 12.521-12.932"/><path d="m17.53 178.134c7.095 0 13.356-4.172 15.86-10.43h43.825v-12.932h-44.242c-2.504-6.258-8.765-10.43-15.86-10.43-9.183.001-17.113 7.511-17.113 17.106a17.476 17.476 0 0 0 17.53 16.687"/><path d="m348.095 102.625v-13.35c6.26-2.502 10.852-8.76 10.852-15.852 0-9.178-7.513-17.104-17.113-17.104-9.182 0-17.112 7.509-17.112 17.104 0 7.092 4.173 12.932 10.434 15.435v13.767c0 7.092-5.843 12.515-12.521 12.515h-23.373v12.933h23.373c14.19 0 25.46-11.681 25.46-25.448"/><path d="m335.573 219.851v10.43c-6.26 2.503-10.434 8.76-10.434 15.435 0 9.178 7.513 17.104 17.113 17.104 9.182 0 17.112-7.509 17.112-17.104 0-7.092-4.591-13.35-10.851-15.852v-10.43c0-14.184-11.27-25.447-25.461-25.447h-23.373v12.932h23.373c6.678 0 12.521 5.84 12.521 12.932"/><path d="m358.947 144.343c-7.095 0-13.356 4.171-15.86 10.43h-43.408v12.931h43.825c2.504 6.258 8.765 10.43 15.86 10.43 9.183 0 17.113-7.51 17.113-17.105a17.477 17.477 0 0 0 -17.53-16.686"/><path d="m108.519 239.876h159.44c9.599 0 17.111-7.51 17.111-17.104v-110.552c0-9.595-7.512-17.104-17.112-17.104h-15.443v-30.87c0-35.46-28.8-64.246-64.277-64.246s-64.276 28.785-64.276 64.245v30.871h-15.443c-9.6 0-17.113 7.509-17.113 17.104v110.552c0 9.594 7.513 17.104 17.113 17.104zm96.832-39.215c.835 2.503-1.252 5.424-4.174 5.424h-25.46c-2.921 0-4.591-2.504-4.174-5.424l6.26-24.613c-4.173-3.338-6.677-8.344-6.677-13.767 0-9.595 7.93-17.521 17.53-17.521s17.53 7.926 17.53 17.521c0 5.84-2.505 10.846-6.678 13.767zm-56.764-136.416c0-22.11 17.948-39.632 39.651-39.632 22.122 0 39.651 17.939 39.651 39.632v30.871h-79.302v-30.87z"/></g><use fill="#111" xlink:href="#b"/><use fill="url(#a)" xlink:href="#b"/></g></g></svg>

<?xml version="1.0" encoding="UTF-8"?>
<svg width="1347px" height="640px" viewBox="0 0 1347 640" version="1.1" xmlns="http://www.w3.org/2000/svg" xmlns:xlink="http://www.w3.org/1999/xlink">
    <title>crypto-service-logo</title>
    <defs>
        <linearGradient x1="50%" y1="0%" x2="50%" y2="100%" id="linearGradient-1">
            <stop stop-color="#01F6F4" offset="0%"></stop>
            <stop stop-color="#3EE85D" offset="100%"></stop>
        </linearGradient>
        <linearGradient x1="50%" y1="0%" x2="50%" y2="100%" id="linearGradient-2">
            <stop stop-color="#01F6F4" offset="0%"></stop>
            <stop stop-color="#3EE85D" offset="100%"></stop>
        </linearGradient>
        <linearGradient x1="50%" y1="0%" x2="50%" y2="100%" id="linearGradient-3">
            <stop stop-color="#01F6F4" offset="0%"></stop>
            <stop stop-color="#3EE85D" offset="100%"></stop>
        </linearGradient>
        <linearGradient x1="50%" y1="0%" x2="50%" y2="100%" id="linearGradient-4">
            <stop stop-color="#01F6F4" offset="0%"></stop>
            <stop stop-color="#3EE85D" offset="100%"></stop>
        </linearGradient>
        <linearGradient x1="50%" y1="0%" x2="50%" y2="100%" id="linearGradient-5">
            <stop stop-color="#01F6F4" offset="0%"></stop>
            <stop stop-color="#3EE85D" offset="100%"></stop>
        </linearGradient>
        <linearGradient x1="50%" y1="0%" x2="50%" y2="100%" id="linearGradient-6">
            <stop stop-color="#01F6F4" offset="0%"></stop>
            <stop stop-color="#3EE85D" offset="100%"></stop>
        </linearGradient>
    </defs>
    <g id="Page-1" stroke="none" stroke-width="1" fill="none" fill-rule="evenodd">
        <g id="crypto-service-logo">
            <polygon id="Path" points="0 0 1280 0 1280 640 0 640"></polygon>
            <g id="crypto-service" transform="translate(44.000000, 199.000000)" fill-rule="nonzero">
                <g id="crypto-seervice-lock">
                    <path d="M28.382,88.858 L28.382,102.208 C28.382,116.392 39.651,127.656 53.842,127.656 L77.215,127.656 L77.215,114.723 L53.842,114.723 C46.746,114.723 41.321,108.883 41.321,102.208 L41.321,88.441 C47.581,85.938 51.755,79.681 51.755,73.006 C51.755,63.828 44.242,55.902 34.643,55.902 C25.46,55.902 17.53,63.411 17.53,73.006 C17.53,80.515 21.704,86.773 28.382,88.858" id="Path" fill="url(#linearGradient-1)"></path>
                    <path d="M53.842,206.919 L77.215,206.919 L77.215,193.987 L53.842,193.987 C39.651,193.987 28.382,205.25 28.382,219.434 L28.382,229.864 C22.121,232.366 17.53,238.624 17.53,245.716 C17.53,254.894 25.043,262.82 34.643,262.82 C43.825,262.82 51.755,255.311 51.755,245.716 C51.755,238.624 47.581,232.784 41.321,230.281 L41.321,219.851 C40.903,212.76 46.746,206.919 53.842,206.919" id="Path" fill="url(#linearGradient-2)"></path>
                    <path d="M17.53,178.134 C24.625,178.134 30.886,173.962 33.39,167.704 L77.215,167.704 L77.215,154.772 L32.973,154.772 C30.469,148.514 24.208,144.342 17.113,144.342 C7.93,144.343 7.10542736e-15,151.853 7.10542736e-15,161.448 C0.4230796,170.811225 8.15730089,178.173515 17.53,178.135299" id="Path" fill="url(#linearGradient-3)"></path>
                    <path d="M348.095,102.625 L348.095,89.275 C354.355,86.773 358.947,80.515 358.947,73.423 C358.947,64.245 351.434,56.319 341.834,56.319 C332.652,56.319 324.722,63.828 324.722,73.423 C324.722,80.515 328.895,86.355 335.156,88.858 L335.156,102.625 C335.156,109.717 329.313,115.14 322.635,115.14 L299.262,115.14 L299.262,128.073 L322.635,128.073 C336.825,128.073 348.095,116.392 348.095,102.625" id="Path" fill="url(#linearGradient-1)"></path>
                    <path d="M335.573,219.851 L335.573,230.281 C329.313,232.784 325.139,239.041 325.139,245.716 C325.139,254.894 332.652,262.82 342.252,262.82 C351.434,262.82 359.364,255.311 359.364,245.716 C359.364,238.624 354.773,232.366 348.513,229.864 L348.513,219.434 C348.513,205.25 337.243,193.987 323.052,193.987 L299.679,193.987 L299.679,206.919 L323.052,206.919 C329.73,206.919 335.573,212.759 335.573,219.851" id="Path" fill="url(#linearGradient-2)"></path>
                    <path d="M358.947,144.342708 C351.852,144.342708 345.591,148.514 343.087,154.773 L299.679,154.773 L299.679,167.704 L343.504,167.704 C346.008,173.962 352.269,178.134 359.364,178.134 C368.547,178.134 376.477,170.624 376.477,161.029 C376.052896,151.666399 368.319124,144.304978 358.947,144.342708" id="Path" fill="url(#linearGradient-4)"></path>
                    <path d="M108.519,239.876 L267.959,239.876 C277.558,239.876 285.07,232.366 285.07,222.772 L285.07,112.22 C285.07,102.625 277.558,95.116 267.958,95.116 L252.515,95.116 L252.515,64.246 C252.515,28.786 223.715,-1.42108547e-14 188.238,-1.42108547e-14 C152.761,-1.42108547e-14 123.962,28.785 123.962,64.245 L123.962,95.116 L108.519,95.116 C98.919,95.116 91.406,102.625 91.406,112.22 L91.406,222.772 C91.406,232.366 98.919,239.876 108.519,239.876 L108.519,239.876 Z M205.351,200.661 C206.186,203.164 204.099,206.085 201.177,206.085 L175.717,206.085 C172.796,206.085 171.126,203.581 171.543,200.661 L177.803,176.048 C173.63,172.71 171.126,167.704 171.126,162.281 C171.126,152.686 179.056,144.76 188.656,144.76 C198.256,144.76 206.186,152.686 206.186,162.281 C206.186,168.121 203.681,173.127 199.508,176.048 L205.351,200.661 Z M148.587,64.245 C148.587,42.135 166.535,24.613 188.238,24.613 C210.36,24.613 227.889,42.552 227.889,64.245 L227.889,95.116 L148.587,95.116 L148.587,64.246 L148.587,64.245 Z" id="Shape" fill="url(#linearGradient-5)"></path>
                </g>
                <text fill="url(#linearGradient-6)" font-family="CircularStd-Medium, Circular Std" font-size="104" font-weight="400">
                    <tspan x="434" y="201">CRYPTO SERVICE</tspan>
                </text>
            </g>
        </g>
    </g>
</svg>
